!!!!SEGMENT: pl-wtm--r-2048--001-pc1_smietanski-emil-wladyslaw--preludio-pc1.krn
!!!cenid: 18xx:2032b
!!!COM: Śmietański, Emil Władysław
!!!COM-rismid: pe50041781
!!!CDT: 1845-1886
!!!CNT: Polish
!!!GTL: Preludio
!!!OTL: [post correcturam]
!!!PDT:
!!!AGN: Secular; Prelude
!!!SMS-siglum: PL-Wtm
!!!SMS-shelfmark: R 2048
!!!SMS-shelfwork: 001 G
!!!SMS-variant:
!!!SMS-altvar:
!!!NIFC-rismid: 1001112690
!!!URL-scan: http://repozytorium.nifc.pl/skany/pl-wtm-nut--r2048
!!!ONB-nifc: UWAGA: w zbiorze 1. Preludio i 2. Fuga a tre voci
!!!OMD: Allegro non. tanto.
**kern	**kern	**dynam
*part2	*part1	*part1
*staff2	*staff1	*
*Iforte	*Iforte	*
*I"Fortepian	*I"Fortepian	*
*pf	*I'pf	*
*clefF4	*clefG2	*
*k[b-e-]	*k[b-e-]	*
*g:	*g:	*
*M4/4	*M4/4	*
*met(c)	*met(c)	*
*>[A,A,B,B]	*>[A,A,B,B]	*>[A,A,B,B]
=1	=1	=1
*>A	*>A	*>A
*^	*	*
4ryy	8B-L 8G\	16dd\LL	p
.	.	16ee-\	.
!	!	!LO:TX:b:i:t=e non legato.	!
.	8B- 8G\	16cc\	.
.	.	16dd\JJ	.
8dL\	8d 8G\	16b-\LL	.
.	.	16cc\	.
8B-J/	8GJ\	16dd\	.
.	.	16b-\JJ	.
2ryy	8e-L 8G\	16cc\LL	.
.	.	16a\	.
.	8e- 8G\	16b-\	.
.	.	16cc\JJ	.
.	8d 8F#X\	16dd\LL	.
.	.	16cc\	.
.	8dJ 8F#\	16b-\	.
.	.	16a\JJ	.
*v	*v	*	*
=2	=2	=2
8B-L 8G\	16b-\LL	.
.	16d\	.
8B- 8G\	16e-\	.
.	16d\JJ	.
8A 8D\	16en\LL	.
.	16d\	.
8AJ 8D\	16f#X\	.
.	16d\JJ	.
8DL 8BB-\	16g\LL	.
.	16f#\	.
8D 8BB-\	16g\	.
.	16a\JJ	.
8D 8GG\	16b-\LL	.
.	16cc\	.
8B-J 8G\	16dd\	.
.	16een\JJ	.
=3	=3	=3
*^	*	*
*	*2\right	*	*
16A/LL	2D\	8ff\L	<
16B-/	.	.	.
16G/	.	16een\L	.
16A/JJ	.	16ff\J	.
16F/LL	.	16dd\	.
16G/	.	16ee\	.
16A/	.	16ee\	.
16F/JJ	.	16dd\J	.
16G/LL	2AA\	8dd\L	.
16En/	.	.	.
16F/	.	16ee\L	.
16G/JJ	.	16dd\J	.
16A/LL	.	16cc#X\	.
16G/	.	16a\	.
16F/	.	16bn\	.
16E/JJ	.	16cc#\J	.
=4	=4	=4	=4
16F/LL	2DD\	8dd\L	.
16AA/	.	.	.
16BB-/	.	8cc#\J	.
16AA/JJ	.	.	.
16BBn/LL	.	8dd\L	.
16AA/	.	.	.
16C#X/	.	16ee-\L	.
16AA/JJ	.	16ff\JJ	.
!	!LO:N:vis=4.	!	!
16D/LL	4FF\	8dd\	.
16C#/	.	.	.
16D/	.	4a/	.
16En/JJ	.	.	.
16F/LL	8DL\	.	.
16G/	.	.	.
16G#X/	8FJ\	8dd\	.
16A/JJ	.	.	.
!!LO:LB:g=original
=5	=5	=5	=5
!	!	!	!LO:DY:rj
8B-L 8G\	2ryy	16ee-\LL	p
.	.	16e-\	.
8B- 8G\	.	16ee-\	.
.	.	16dd\JJ	.
8G 8E-\	.	16cc\LL	.
.	.	16b-\	.
8B-J 8E-\	.	16a\	.
.	.	16g\JJ	.
4c/	8E-\L	16a\LL	.
.	.	16f\	.
.	16F\L	16g\	.
.	16E-\JJ	16a\JJ	.
8F/L	8D\L	16b-\LL	.
.	.	16cc\	.
8B-/J	8D\J	16dd\	.
!	!	!	!LO:HP:t=cresc
.	.	16b-\JJ	<
=6	=6	=6	=6
8B-L 8E-\	2ryy	16gg\LL	.
.	.	16g\	.
8B- 8E-\	.	16gg\	.
.	.	16ff\JJ	.
8G 8E-\	.	16ee-\LL	.
.	.	16dd\	.
8GJ 8E-\	.	16cc\	.
.	.	16b-\JJ	.
8A/L	4E-\	16cc\LL	.
.	.	16a\	.
16G/L	.	16b-\	.
16A/JJ	.	16cc\JJ	.
8B-/L	8D\L	16dd\LL	.
.	.	16ee-\	.
8d/J	8B-\J	16ff\	.
.	.	16dd\JJ	.
=7	=7	=7	=7
2ryy	8fL 8d\	16bb-\LL	.
.	.	16b-\	.
.	8f 8d\	16bb-\	.
.	.	16aa\JJ	.
!	!	!LO:TX:b:t=dim..:problem:dynamics with extention lines	!LO:HP:t=dim..
.	8d 8B-\	16gg\LL	>
.	.	16ff\	.
.	8gJ [8B-\	16een\	.
.	.	16dd\JJ	.
8en/	16en 16B-]\LL	8cc#X\L	.
.	16A\	.	.
8r	16a\	16bn\L	.
.	16g\JJ	16cc#\JJ	.
4r	16f\LL	8dd\L	.
.	16e\	.	.
.	16d\	8ee\J	.
.	16c#X\JJ	.	]
*v	*v	*	*
=8	=8	=8
*clefG2	*	*
8fL 8d/	16aa\LL	p
.	16bb-\	.
8f 8d/	16gg\	.
.	16aa\JJ	.
8a 8d/	16ff\LL	.
.	16gg\	.
8fJ 8d/	16aa\	.
.	16ff\JJ	.
8b-L 8d/	16gg\LL	.
.	16een\	.
8b- 8d/	16ff\	.
.	16gg\JJ	.
8a 8c#X/	16aa\LL	.
.	16gg\	.
8aJ 8c#/	16ff\	.
.	16ee\JJ	.
*clefF4	*	*
!!LO:LB:g=original
=9	=9	=9
*	*^	*
!	!	!LO:TX:a:t=P:problem:dwa takty wykreślone ołówkiem	!
16d\LL	4ff#X/	4a\	.
16e-\	.	.	.
16c\	.	.	.
!	!	!	!LO:HP:t=cresc
16d\JJ	.	.	<
16B-\LL	8gg/L	4dd\	.
16c\	.	.	.
16d\	16ff#/L	.	.
16B-\JJ	16gg/JJ	.	.
16c\LL	8ee-X/L	8cc\L	.
16A\	.	.	.
16B-\	8g/	8e-\	.
16c\JJ	.	.	.
16d\LL	8f#X/	8d\	.
16c\	.	.	.
16B-\	8dd/J	8f#\J	.
16A\JJ	.	.	.
=10	=10	=10	=10
8dL 8G\	16bn/LL	16g\	.
.	16g/	16r	.
8d 8G\	16a/	8r	.
.	16b/JJ	.	.
8en 8G\	16cc#X/LL	4r	.
.	16a/	.	.
8eJ 8G\	16b/	.	.
.	16cc#/JJ	.	.
8F\L	16dd/LL	8a\L	.
.	16cc#/	.	.
8f\	16dd/	8a\	.
.	16een/JJ	.	.
8e\	16ff/LL	8g#X\	.
.	16ee/	.	.
8En\J	16dd/	8g#\J	.
.	16ee/JJ	.	.
!!LO:LB:g=original
=11	=11	=11	=11
8AA\L	16cc#X/LL	16a\	f
.	16aa/	16r	.
8c#X 8A\	16bb-/	8r	.
.	16aa/JJ	.	.
8d 8A\	16gg/LL	4r	.
.	16ff/	.	.
8fJ 8A\	16een/	.	.
.	16dd/JJ	.	.
8c#L 8A\	8ee/L	16g\LL	.
.	.	16f#X\	.
8c# 8A\	8ee/J	16g\	.
.	.	16a\JJ	.
8en 8A\	8cc#/L	16b-\LL	.
.	.	16a\	.
8eJ 8A\	8cc#/J	16g\	.
.	.	16a\JJ	.
=12	=12	=12	=12
8dL 8D\	16dd/LL	16f\	.
.	16ff/	16r	.
8d 8F\	16a/	8r	.
.	16dd/JJ	.	.
8G 8F\	16b-/LL	4r	f
.	16dd/	.	.
8cJ 8En\	16g/	.	.
.	16cc/JJ	.	.
8cL 8F\	16a/LL	2r	.
.	16cc/	.	.
8A 8F\	16f/	.	.
.	16cc/JJ	.	.
8c 8F\	16a/LL	.	.
.	16cc/	.	.
8AJ 8F\	16f/	.	.
.	16cc/JJ	.	.
*	*v	*v	*
=13	=13	=13
8DL 8BB-\	16b-/LL	.
.	16dd/	.
8B- 8D\	16f/	.
.	16b-/JJ	.
8En 8D\	16g/LL	.
.	16b-/	.
8GJ 8C#\	16en/	.
.	16a/JJ	.
8AL 8D\	16f/LL	.
.	16a/	.
8F 8D\	16d/	.
.	16a/JJ	.
8A 8D\	16f/LL	.
.	16a/	.
8FJ 8D\	16d/	.
.	16a/JJ	.
=14	=14	=14
8B-L 8GG\	16g/LL	.
.	16f#X/	.
8B- 8GG\	16g/	.
.	16b-/JJ	.
8A 8GG\	16c#X/LL	.
.	16en/	.
8AJ 8GG\	16a/	.
.	16cc#X/JJ	.
!!LO:LB:g=original
8AL 8FF\	16d/LL	.
!	!LO:SIC:v:s=16fn	!
.	16f#/	.
8A 8FF\	16a/	.
.	16dd/JJ	.
8D 8BB-\	16ff/LL	.
.	16een/	.
8DJ 8BB-\	16ff/	.
.	16dd/JJ	.
!!LO:LB:g=original
=15	=15	=15
*^	*^	*
8D/L	16GG\LL	4.ryy	8eenL 8b- 8g\	.
.	16FF#X\	.	.	.
!	!	!	!LO:TX:b:t=riten	!
8D/J	16GG\	.	8ee 8g\	.
.	16BB-\JJ	.	.	.
16C#X/LL	8AAL\	.	8a 8g\	.
16En/	.	.	.	.
8A/JJ	8AAJ\	8cc#/	16a 16f\	.
.	.	.	16gJk 16eny\	.
8qDD\	.	.	.	.
*2\left	*	*	*	*
2A 2D\	2ryy	2ryy	2dd 2f#X 2d\	.
*	*	*v	*v	*
*v	*v	*	*
=16:|!	=16:|!	=16:|!
*>B	*>B	*>B
8BnL 8GG\	16ff\LL	p
.	16gg\	.
8B 8GG\	16ee-\	.
.	16ff\JJ	.
8g 8B\	16dd\LL	.
.	16ee-\	.
8gJ 8B\	16ff\	.
.	16dd\JJ	.
8e-L 8c\	16ee-\LL	.
.	16cc\	.
8e-J 8B\	16dd\	.
.	16ee-\JJ	.
8cL 8A-X\	16ff\LL	.
.	16ee-\	.
8cJ 8A-\	16dd\	.
.	16cc\JJ	.
=17	=17	=17
*^	*^	*
16f/LL	4F\	8dd/L	4a-X\	.
16g/	.	.	.	.
16e-/	.	16cc/L	.	.
16f/JJ	.	16dd/JJ	.	.
16d/LL	4G\	8bn/L	4g\	.
16e-/	.	.	.	.
16f/	.	8b/J	.	.
16d/JJ	.	.	.	.
16e-/LL	4C\	8cc/L	16gLL\	.
16c/	.	.	16e-\	.
16d/	.	8cc/	16f\	.
16e-/JJ	.	.	16gJJ\	.
16f/LL	4r	8b/	16a-LL\	.
16e-/	.	.	16g\	.
16d/	.	8cc/J	16f\	.
16c/JJ	.	.	16e-JJ\	.
*v	*v	*	*	*
*	*v	*v	*
=18	=18	=18
8AL 8FF\	16ee-\LL	.
.	16ff\	.
8A 8FF\	16dd\	.
.	16ee-\JJ	.
8f 8A\	16cc\LL	.
.	16dd\	.
8fJ 8A\	16ee-\	.
.	16cc\JJ	.
!!LO:LB:g=original
8dL 8B-\	16dd\LL	.
.	16b-\	.
8d 8A\	16cc\	.
.	16dd\JJ	.
8B- 8G\	16ee-\LL	.
.	16dd\	.
8B-J 8G\	16cc\	.
.	16b-\JJ	.
!!LO:LB:g=original
=19	=19	=19
*^	*^	*
16e-/LL	4E-\	8cc/L	4g\	.
16f/	.	.	.	.
16d/	.	16b-/L	.	.
16e-/JJ	.	16cc/JJ	.	.
16c/LL	4F\	8a/L	4f\	.
16d/	.	.	.	.
16e-/	.	8a/J	.	.
16c/JJ	.	.	.	.
16d/LL	4BB-\	8b-/L	16fLL\	.
16B-/	.	.	16d\	.
16c/	.	8b-/	16e-\	.
16d/JJ	.	.	16fJJ\	.
16e-/LL	4r	8a/	16g-LL\	.
16d/	.	.	16f\	.
16c/	.	8b-/J	16e-\	.
16B-/JJ	.	.	16dJJ\	.
=20	=20	=20	=20	=20
*	*2\right	*	*	*
8F/L	2BB-\	8dd/L	16dd\LL	f
!	!	!LO:TX:b:i:t=espressivo	!	!
.	.	.	16b-\	.
8En/	.	8cc#X/	16cc#\	.
.	.	.	16b-\JJ	.
8F/	.	8dd/	16dd\LL	.
.	.	.	16b-\	.
8d/J	.	8ff/J	16ff\	.
.	.	.	16b-\JJ	.
8e-/L	2F\	8ff/L	16ff\LL	.
.	.	.	16a\	.
!	!	!LO:SIC:v:s=8ccn	!LO:SIC:v:s=16ccn	!
8e-/	.	8cc#/	16cc#\	.
.	.	.	16a\JJ	.
8d/	.	8bn/	16bn\LL	.
.	.	.	16a\	.
!	!	!LO:SIC:v:s=8ccn	!LO:SIC:v:s=16ccn	!
8e-/J	.	8cc#/J	16cc#\	.
.	.	.	16a\JJ	.
=21	=21	=21	=21	=21
8F/L	2BB-\	8dd/L	16dd\LL	.
.	.	.	16b-\	.
8En/	.	8cc#X/	16cc#\	.
.	.	.	16b-\JJ	.
8F/	.	8dd/	16dd\LL	.
.	.	.	16b-\J	.
8d/J	.	16gg/L	8dd\J	.
.	.	16ff/JJ	.	.
8e-/L	2F\	8ff/L	16ff\LL	.
.	.	.	16a\	.
!	!	!LO:SIC:v:s=8ccn	!LO:SIC:v:s=16ccn	!
8e-/	.	8cc#/	16cc#\	.
.	.	.	16a\JJ	.
8d/	.	8bn/	16bn\LL	.
.	.	.	16a\	.
!	!	!LO:SIC:v:s=8ccn	!LO:SIC:v:s=16ccn	!
8e-/J	.	8cc#/J	16cc#\	.
.	.	.	16a\JJ	.
!!LO:LB:g=original
=22	=22	=22	=22	=22
4.d/	8G\L	8bb-/L	16bb-\LL	.
.	.	.	16b-\	.
.	8F#X\	8aa/	16aa\	.
.	.	.	16b-\JJ	.
.	8G\	8bb-/	16bb-\LL	.
.	.	.	16b-\	.
8G/	8E-\J	8gg/J	16gg\	.
.	.	.	16b-\JJ	.
8B-/L	2D\	8ff/L	16ff\LL	.
.	.	.	16b-\	.
8Fn/	.	8dd/	16dd\	.
.	.	.	16b-\JJ	.
8En/	.	8cc#X/	16cc#\LL	.
.	.	.	16b-\	.
8F/J	.	8dd/J	16dd\	.
.	.	.	16b-\JJ	.
=23	=23	=23	=23	=23
8A/L	2FF\	8ee-/L	16ee-\LL	.
.	.	.	16f\	.
8B-/	.	8dd/	16dd\	.
.	.	.	16f\JJ	.
8G/	.	8ee-/	16ee-\LL	.
.	.	.	16f\	.
8A/J	.	8ff/J	16ff\	.
.	.	.	16f\JJ	.
8D/L	8BB-\L	8dd/L	16dd\LL	.
.	.	.	16f\	.
8B-/	8D\	8b-/	16b-\	.
.	.	.	16f\JJ	.
8c/	8E-\	8a/	16a\LL	.
.	.	.	16f\	.
8B-/J	8D\J	8b-/J	16b-\	.
.	.	.	16f\JJ	.
=24	=24	=24	=24	=24
8F/L	2BB-\	8dd/L	16dd\LL	.
.	.	.	16b-\	.
8En/	.	8cc#X/	16cc#\	.
.	.	.	16b-\JJ	.
8F/	.	8dd/	16dd\LL	.
.	.	.	16b-\	.
8d/J	.	8ff/J	16ff\	.
.	.	.	16b-\JJ	.
8e-/L	2F\	8ff/L	16ff\LL	.
.	.	.	16a\	.
!	!	!LO:SIC:v:s=8ccn	!LO:SIC:v:s=16ccn	!
8e-/	.	8cc#/	16cc#\	.
.	.	.	16a\JJ	.
8d/	.	8bn/	16bn\LL	.
.	.	.	16a\	.
!	!	!LO:SIC:v:s=8ccn	!LO:SIC:v:s=16ccn	!
8e-/J	.	8cc#/J	16cc#\	.
.	.	.	16a\JJ	.
=25	=25	=25	=25	=25
8F/L	2BB-\	8dd/L	16dd\LL	.
.	.	.	16b-\	.
8En/	.	8cc#X/	16cc#\	.
.	.	.	16b-\JJ	.
8F/	.	8dd/	16dd\LL	.
.	.	.	16b-\J	.
8d/J	.	16gg/L	8dd\J	.
.	.	16ff/JJ	.	.
8e-/L	2F\	8ff/L	16ff\LL	.
.	.	.	16a\	.
8e-/	.	8ccn/	16ccn\	.
.	.	.	16a\JJ	.
8d/	.	8bn/	16bn\LL	.
.	.	.	16a\	.
8e-/J	.	8cc/J	16cc\	.
.	.	.	16a\JJ	.
!!LO:LB:g=original
=26	=26	=26	=26	=26
4.d/	8G\L	8bb-/L	16bb-\LL	.
.	.	.	16b-\	.
.	8F#X\	8aa/	16aa\	.
.	.	.	16b-\JJ	.
.	8G\	8bb-/	16bb-\LL	.
.	.	.	16b-\	.
8G/	8E-\J	8gg/J	16gg\	.
.	.	.	16b-\JJ	.
2B-/	8D\L	8ff/L	16ff\LL	.
.	.	.	16b-\	.
.	8D\	8ff/	16ff\	.
.	.	.	16b-\JJ	.
.	8E-\	8gg/	16gg\LL	.
.	.	.	16b-\	.
.	8D\J	8ff/J	16ff\	.
.	.	.	16b-\JJ	.
=27	=27	=27	=27	=27
8c//	8C\L	8ee-/L	16ee-\LL	.
.	.	.	16g\	.
4G/	8BBn\	8dd/	16dd\	.
!	!	!	!	!LO:HP:t=dim
.	.	.	16g\JJ	>
.	8C\	8ee-/	16ee-\LL	.
.	.	.	16g\	.
8c/	8E-\J	8cc/J	16cc\	.
.	.	.	16g\JJ	.
8A/L	2D\	8dd/L	16dd\LL	.
.	.	.	16f#X\	.
8A/	.	8dd/	16dd\	.
.	.	.	16f#\JJ	.
8B-/	.	8cc#X/	16cc#\LL	.
.	.	.	16g\	.
8A/J	.	8dd/J	16dd\	.
.	.	.	16f#\JJ	.
*v	*v	*	*	*
*	*v	*v	*
=28	=28	=28
16d\LL	8ddL 8a 8f#X\	p
16e-\	.	.
16c\	8dd 8a 8f#\	.
16d\JJ	.	.
16B-\LL	8dd 8b- 8g\	.
16c\	.	.
16d\	8ddJ 8b- 8g\	.
16B-\JJ	.	.
16c\LL	8ee-L 8a 8g\	.
16A\	.	.
16B-\	8ee- 8a 8g\	.
16c\JJ	.	.
16d\LL	8dd 8a 8f#\	.
16c\	.	.
16B-\	8ddJ 8a 8f#\	.
16A\JJ	.	.
=29	=29	=29
8B-L 8G\	16dd\LL	.
.	16ee-\	.
8B- 8G\	16cc\	.
.	16dd\JJ	.
8g 8B-\	16b-\LL	.
.	16cc\	.
8gJ 8B-\	16dd\	.
.	16b-\JJ	.
8gL 8A\	16cc\LL	.
.	16a\	.
8g 8A\	16b-\	.
.	16cc\JJ	.
8f#X 8d\	16dd\LL	.
.	16cc\	.
8f#J 8d\	16b-\	.
.	16a\JJ	.
!!LO:PB:g=original
=30	=30	=30
*clefG2	*	*
16g/LL	8ggL 8dd 8bn\	.
16a-X/	.	.
16f/	8gg 8dd 8b\	.
16g/JJ	.	.
16e-/LL	8gg 8ee- 8cc\	.
16f/	.	.
16g/	8ggJ 8ee- 8cc\	.
16e-/JJ	.	.
16f/LL	8aaL 8dd 8cc\	.
16d/	.	.
16e-/	8aa 8dd 8cc\	.
16f/JJ	.	.
16g/LL	8gg 8dd 8bn\	.
16f/	.	.
16e-/	8ggJ 8dd 8b\	.
16d/JJ	.	.
=31	=31	=31
*	*^	*
8gL 8c/	16een/LL	2ryy	.
.	16cc/	.	.
8g 8c/	16dd/	.	.
.	16ee/JJ	.	.
!	!	!	!LO:HP:t=cresc
8a 8d 8c/	16ff#X/LL	.	<
.	16dd/	.	.
8aJ 8d 8c/	16ee/	.	.
.	16ff#/JJ	.	.
8B-/L	16gg/LL	8dd\L	.
.	16ff#/	.	.
8b-/	16gg/	8dd\	.
.	16aa/JJ	.	.
8a/	16bb-/LL	8cc#X\	.
.	16aa/	.	.
8A/J	16gg/	8cc#\J	.
.	16aa/JJ	.	.
*	*v	*v	*
*clefF4	*	*
=32	=32	=32
16D\LL	8ff#XL 8dd 8a/	.
16d\	.	.
16e-\	8ff# 8dd 8a/	.
16d\JJ	.	.
16c\LL	8gg 8dd 8b-/	.
16B-\	.	.
16A\	8ggJ 8dd 8b-/	.
16G\JJ	.	.
16c\LL	8ggL 8ee- 8a/	.
16B-\	.	.
16c\	8gg 8ee- 8a/	.
16A\JJ	.	.
16d\LL	8ff# 8dd 8a/	.
16c\	.	.
16d\	8ff#J 8dd 8a/	.
16D\JJ	.	.
=33	=33	=33
*	*^	*
8BB-L 8GG\	16gg/LL	8b-\L	f
.	16bb-/	.	.
8B- 8G\	16dd/	8g\	.
.	16gg/JJ	.	.
8AA 8FF\	16ee-/LL	8cc\	.
.	16ff/	.	.
8AJ 8F\	16cc/	8f\J	.
.	16ff/JJ	.	.
!!LO:LB:g=original
8B-L 8D 8BB-\	16dd/LL	8f\L	.
.	16ff/	.	.
8D 8BB-\	16b-/	8f\	.
.	16ff/JJ	.	.
8D 8BB-\	16b-/LL	8f\	.
.	16ff/	.	.
8B-J 8D 8BB-\	16dd/	8f\J	.
.	16ff/JJ	.	.
!!LO:LB:g=original
=34	=34	=34	=34
8CL 8EE-\	16ee-/LL	8cc\L	.
.	16gg/	.	.
8cJ 8E-\	16cc/	8g\	.
.	16ee-/JJ	.	.
8AAL 8DD\	16cc/LL	8f#X\	.
.	16dd/	.	.
8F#XJ 8D\	16a/	8d\J	.
.	16dd/JJ	.	.
8GL 8BB- 8GG\	16b-/LL	8d\L	.
.	16dd/	.	.
8BB- 8GG\	16g/	8d\	.
.	16dd/JJ	.	.
8BB- 8GG\	16g/LL	8d\	.
.	16dd/	.	.
8GJ 8BB- 8GG\	16b-/	8d\J	.
.	16dd/JJ	.	.
=35	=35	=35	=35
8CL 8GG 8CC\	16cc/LL	8e-\L	.
.	16bn/	.	.
8cJ 8G 8C\	16cc/	8e-\	.
.	16ee-/JJ	.	.
8AAL 8CC\	16f#X/LL	8d\	.
.	16a/	.	.
8AJ 8C\	16dd/	8a\J	.
.	16ff#X/JJ	.	.
!	!LO:TX:b:i:t=ritt.	!	!
8GGL 8BBB-\	16g/LL	8d\L	.
!	!LO:SIC:v:s=16b-	!	!
.	16b/	.	.
!	!	!LO:SIC:v:s=8b-	!
8G 8BB-\	16dd/	8b\	.
.	16gg/JJ	.	.
8g 8e-\	16bb-:/LL	8b:\	.
.	16aa/	.	.
8GJ 8E-\	16bb-:/	8b:\J	.
.	16gg/JJ	.	.
*	*v	*v	*
=36	=36	=36
*^	*	*
16C/LL	4CC\	8aaL 8cc 8g\	.
16BBn/	.	.	.
16C/	.	8aa 8cc 8g\	.
16E-/JJ	.	.	.
16AA/LL	4DD\	8dd 8f#X 8d\	.
16D/	.	.	.
16C/	.	8ff#XJ 8dd 8a\	.
16D/JJ	.	.	.
*	*	*2\right	*
2Bny: 2G: 2D: 2BBn:/	2GG: 2GGG:\	2gg 2dd 2g\	.
*v	*v	*	*
=:|!	=:|!	=:|!
*-	*-	*-
!!!system-decoration: {(s1,s2)}
!!!ENC: Marta Lawrence
!!!END: 2021-05-26
!!!ENC: Katarzyna Serwa
!!!END: 2021-05-10
